X:1
T:Title
%%score { ( 1 3 ) | 2 }
L:1/8
Q:1/4=96
M:2/4
K:C
V:1 treble nm="Grand Piano"
V:3 treble 
V:2 bass 
V:1
 [EG][EG] [EA][EB] | [Ec]2 [CEG]2 | [B,DF][B,DF] [B,G][B,G] | [CE]4 | [EG][EG] [EA][EB] | %5
w: W.~J.~Kirkpatrick * * *|||||
 [Ec]2 [EG]2 | BA G^F | GG/G/ GG | [Ec]2 [EG]2 | [Ec]2 [EG]2 | AA dc | B4 | [Ec][Ec] [EG][EG] | %13
w: ||||||||
 [CGB]2 [CFA]2 | [EG][DF][K:bass] [G,CE][F,B,D] | [E,C]4 |] %16
w: |||
V:2
 [C,G,][C,G,] [C,G,][C,G,] | [C,G,]2 C,2 | G,,G,, [G,,G,][G,,G,] | [C,G,]4 | %4
 [C,C][C,C] [C,G,][C,G,] | [C,G,]2 [C,C]2 | [D,G,D][D,CD] [D,B,D][D,A,D] | [G,B,D]4 | %8
 [C,G,]C, C,C, | [C,G,]C, C,C, | [F,CF][F,CF] [F,A,F][F,DF] | [G,DF]4 | [C,G,][C,G,] [C,C][C,C] | %13
 F,2 F,2 | G,G, G,,G,, | C,4 |] %16
V:3
 x4 | x4 | x4 | x4 | x4 | x4 | x4 | x4 | z G, CC | z G, CC | x4 | z G/G/ GG | x4 | x4 | %14
 x2[K:bass] x2 | x4 |] %16

